X:1
T:The Wishing Well
R:jig
M:6/8
L:1/8
K:D
|:DFA d2e|fdB BAF|d2B BAF|BdB BAF|
|DFA d2e|fdB BAF|BAF dBA|1 fac d2D:|2 fac d2B|]
|:Adf ~a2a|baf afd|~f2g afd|Bdg bge|
|Adf ~a2a|baf afd|~b2a afd|1 Ace d2B:|2 Ace d2e|]
|:fdd ceA|d2g fdB|~c2B ceA|~a2a bag|
|fdd edc|dge fdA|FAD GBD|1 Aec d2e:|2 Aec d2D|]